X: 19635
T: Jealous Paranoia
R: jig
M: 6/8
K: Dmajor
f3 dAF|DFA def|g3 efg|gfg e3|
f3 dAF|DFA def|g3 eag|fdc d3:|
afd gec|dAF DFA|def gfg|eag e3|
afd gec|dAF DFA|def gec|edc d3:|

